Adwaita++/status/16/network-acquiring.svg

<svg height="16" width="16" xmlns="http://www.w3.org/2000/svg">
  <g fill="#474747">
    <path d="m10 0v2h-3v3h7.889l.611-.5z" opacity=".3"/>
    <path d="m1 11 5 4v-2h3v-2z" opacity=".3"/>
    <path d="m5 8a2 2 0 0 1 -2 2 2 2 0 0 1 -2-2 2 2 0 0 1 2-2 2 2 0 0 1 2 2z"/>
    <path d="m10 8a2 2 0 0 1 -2 2 2 2 0 0 1 -2-2 2 2 0 0 1 2-2 2 2 0 0 1 2 2z"/>
    <path d="m15 8a2 2 0 0 1 -2 2 2 2 0 0 1 -2-2 2 2 0 0 1 2-2 2 2 0 0 1 2 2z"/>
  </g>
</svg>

<svg xmlns="http://www.w3.org/2000/svg" width="16" height="16" version="1.1">
 <path style="fill:#474747;opacity:0.3" d="M 10 0 L 10 2 L 7 2 L 7 5 L 14.889 5 L 15.5 4.5 L 10 0 z"/>
 <path style="opacity:0.3;fill:#474747" d="M 1,11 6,15 V 13 H 9 V 11 Z"/>
 <path style="fill:#474747" d="M 5,8 A 2,2 0 0 1 3,10 2,2 0 0 1 1,8 2,2 0 0 1 3,6 2,2 0 0 1 5,8 Z"/>
 <path style="fill:#474747" d="M 10,8 A 2,2 0 0 1 8,10 2,2 0 0 1 6,8 2,2 0 0 1 8,6 2,2 0 0 1 10,8 Z"/>
 <path style="fill:#474747" d="M 15,8 A 2,2 0 0 1 13,10 2,2 0 0 1 11,8 2,2 0 0 1 13,6 2,2 0 0 1 15,8 Z"/>
</svg>
